!!!ONB: MCCC : IWM0405_01 : Extracted Monophonic Melody
!!!COM: Mozart, Wolfgang Amadeus
!!!OPR: Piano Sonata No.5
!!!OMV: 1
!!!SCT: K.283 ; K⁶.189h
!!!ODT: 1775///
**kern
*thru
*staff1
*>A
*clefG2
*k[f#]
*G:
*M3/4
*MM120
8.dd
16b
=1
4dd
4r
4g
=2
4f#
4r
8.aa
16ff#
=3
4aa
4r
4cc
=4
4b
4r
8.gg
16ff#
=5
8ff#
8ee
4ee
8.gg
16ee
=6
8ee
8dd
4dd
8.gg
16dd
=7
4dd
4dd
4dd
=8
16dd
16ee
16ff#
16gg
16aa
16bb
16ccc
16ddd
16ccc
16bb
16aa
16gg
=9
16ff#
16ee
16dd
16cc
16b
16dd
16b
16g
16a
16cc
16a
16f#
=10
4g
4r
8.g
16f#
=11
8f#
8e
4e
8.g
16e
=12
8e
8d
4d
8.gg
16dd
=13
4dd
4dd
4dd
=14
16dd
16ee
16ff#
16gg
16aa
16bb
16ccc
16ddd
16ccc
16bb
16aa
16gg
=15
16ff#
16ee
16dd
16cc
16b
16dd
16b
16g
16a
16cc
16a
16f#
=16
4g
8r
16G
16B
16A
16c
16B
16d
=17
4c
8r
16A
16c
16B
16d
16c
16e
=18
4d
8r
16B
16d
16c
16e
16d
16f
=19
16e
16f
16d
16e
16c
16e
16d
16f
16e
16g
16f#
16a
=20
16g
16a
16f#
16g
16e
16g
16f#
16a
16g
16b
16a
16cc
=21
16b
16cc
16a
16b
16g
16b
16a
16cc
16b
16dd
16cc#
16ee
=22
4dd
4d
4r
=23
8r
4aa
4gg
8ff#[
=24
8ff#]
4ee
4dd
8cc#
=25
16ee
8.dd
16ff#
8.ee
16gg
8.ff#
=26
8.aa
16gg
4ee
4r
=27
8r
16aa
16bb
8gg
16gg
16aa
8ff#
16ff#
16gg
=28
8ee
16ee
16ff#
8dd
16dd
16ee
8cc#
16cc#
16ee
=29
16dd
16ee
16ff#
16dd
16ee
16ff#
16gg
16ee
16ff#
16gg
16aa
16ff#
=30
16aa
16gg
16aa
16gg
4ee
4r
=31
8r
8dd
8cc#
8dd
8gg
8ff#
=32
8r
8dd
8cc#
8dd
8bb
8aa
=33
8r
8dd
8cc#
8dd
8ddd
8ccc#
=34
8ccc
8bb
8gg#
8aa
8ff#
8gg
=35
16gg
16ee
16cc#
16a
16g#
16a
16b
16a
16gg
16ee
16cc#
16a
=36
16aa
16ff#
16dd
16a
16g#
16a
16b
16a
16aa
16ff#
16dd
16a
=37
16b
16ee
16gg
16bb
16bb
16aa
16gg
16ff#
16ff#
16ee
16dd
16cc#
=38
8r
8dd
8cc#
8dd
8ddd
8ccc#
=39
8ccc
8bb
8gg#
8aa
8ff#
8gg
=40
16gg
16ee
16cc#
16a
16g#
16a
16b
16a
16gg
16ee
16cc#
16a
=41
16aa
16ff#
16dd
16a
16g#
16a
16b
16a
16aa
16ff#
16dd
16a
=42
16b
16ee
16gg
16bb
16bb
16aa
16gg
16ff#
16ff#
16ee
16dd
16cc#
=43
8dd
16dd
16ff#
16ee
16gg
16ff#
16aa
4gg
=44
8ff#
16dd
16ff#
16ee
16gg
16ff#
16aa
4gg
=45
4ff#
4ee
4dd
=46
8gg
4ff#
4ee
8dd
=47
8dd#
8ee
8r
8gg
8ee
8cc#
=48
4ff#
4ee
4dd
=49
4cc#
4b
4a
=50
16ee
16gg
16bb
16gg
16ff#
16aa
16dd
16ff#
16ee
16gg
16cc#
16ee
=51
4dd
8r
8cc
8b
8cc#
=52
4dd
8r
8ccc
8bb
8ccc#
=53
4ddd
4r
*>A
*M3/4
8.dd
16b
=54
4dd
4r
4g
=55
4f#
4r
8.aa
16ff#
=56
4aa
4r
4cc
=57
4b
4r
8.gg
16ff#
=58
8ff#
8ee
4ee
8.gg
16ee
=59
8ee
8dd
4dd
8.gg
16dd
=60
4dd
4dd
4dd
=61
16dd
16ee
16ff#
16gg
16aa
16bb
16ccc
16ddd
16ccc
16bb
16aa
16gg
=62
16ff#
16ee
16dd
16cc
16b
16dd
16b
16g
16a
16cc
16a
16f#
=63
4g
4r
8.g
16f#
=64
8f#
8e
4e
8.g
16e
=65
8e
8d
4d
8.gg
16dd
=66
4dd
4dd
4dd
=67
16dd
16ee
16ff#
16gg
16aa
16bb
16ccc
16ddd
16ccc
16bb
16aa
16gg
=68
16ff#
16ee
16dd
16cc
16b
16dd
16b
16g
16a
16cc
16a
16f#
=69
4g
8r
16G
16B
16A
16c
16B
16d
=70
4c
8r
16A
16c
16B
16d
16c
16e
=71
4d
8r
16B
16d
16c
16e
16d
16f
=72
16e
16f
16d
16e
16c
16e
16d
16f
16e
16g
16f#
16a
=73
16g
16a
16f#
16g
16e
16g
16f#
16a
16g
16b
16a
16cc
=74
16b
16cc
16a
16b
16g
16b
16a
16cc
16b
16dd
16cc#
16ee
=75
4dd
4d
4r
=76
8r
4aa
4gg
8ff#[
=77
8ff#]
4ee
4dd
8cc#
=78
16ee
8.dd
16ff#
8.ee
16gg
8.ff#
=79
8.aa
16gg
4ee
4r
=80
8r
16aa
16bb
8gg
16gg
16aa
8ff#
16ff#
16gg
=81
8ee
16ee
16ff#
8dd
16dd
16ee
8cc#
16cc#
16ee
=82
16dd
16ee
16ff#
16dd
16ee
16ff#
16gg
16ee
16ff#
16gg
16aa
16ff#
=83
16aa
16gg
16aa
16gg
4ee
4r
=84
8r
8dd
8cc#
8dd
8gg
8ff#
=85
8r
8dd
8cc#
8dd
8bb
8aa
=86
8r
8dd
8cc#
8dd
8ddd
8ccc#
=87
8ccc
8bb
8gg#
8aa
8ff#
8gg
=88
16gg
16ee
16cc#
16a
16g#
16a
16b
16a
16gg
16ee
16cc#
16a
=89
16aa
16ff#
16dd
16a
16g#
16a
16b
16a
16aa
16ff#
16dd
16a
=90
16b
16ee
16gg
16bb
16bb
16aa
16gg
16ff#
16ff#
16ee
16dd
16cc#
=91
8r
8dd
8cc#
8dd
8ddd
8ccc#
=92
8ccc
8bb
8gg#
8aa
8ff#
8gg
=93
16gg
16ee
16cc#
16a
16g#
16a
16b
16a
16gg
16ee
16cc#
16a
=94
16aa
16ff#
16dd
16a
16g#
16a
16b
16a
16aa
16ff#
16dd
16a
=95
16b
16ee
16gg
16bb
16bb
16aa
16gg
16ff#
16ff#
16ee
16dd
16cc#
=96
8dd
16dd
16ff#
16ee
16gg
16ff#
16aa
4gg
=97
8ff#
16dd
16ff#
16ee
16gg
16ff#
16aa
4gg
=98
4ff#
4ee
4dd
=99
8gg
4ff#
4ee
8dd
=100
8dd#
8ee
8r
8gg
8ee
8cc#
=101
4ff#
4ee
4dd
=102
4cc#
4b
4a
=103
16ee
16gg
16bb
16gg
16ff#
16aa
16dd
16ff#
16ee
16gg
16cc#
16ee
=104
4dd
8r
8cc
8b
8cc#
=105
4dd
8r
8ccc
8bb
8ccc#
=106
4ddd
4r
*>B
4r
=107
4aa
4r
4r
=108
16gg
16ff#
16ee
16dd
4cc#
4r
=109
4ddd
4r
4r
=110
4ee[
16ee]
16ff#
16gg
16ff#
16aa
16gg
16ff#
16ee
=111
16gg#
16aa
16gg#
16aa
4aa
4r
=112
16aa
16gg
16ff#
16ee
4dd
8cc#
8r
=113
16ccc#
16ddd
16ccc#
16ddd
4ddd
4r
=114
4ee[
16ee]
16dd#
16ee
16ff#
16aa
16gg
16ff#
16ee
=115
4dd
8r
24ee
24dd
24cc#
8dd
8dd
=116
8bb
8aa
8gg
8ff#
8ee
8dd
=117
4cc
8r
24dd
24cc
24b
8cc
8cc
=118
8aa
8gg
8ff#
8ee
8dd
8cc
=119
4b
8r
24cc
24b
24a
8b
8b
=120
8gg
8ff#
8ee
8dd
8cc
8b
=121
4a
8r
16d
16e
8f#
8g
=122
4a
8r
16f#
16g
8a
8b
=123
4cc
8r
16ccc
16bb
8aa
16aa
16gg
=124
8ff#
16ff#
16ee
8dd
16dd
16cc#
8.dd
16b
=125
4dd
4r
4g
=126
4f#
4r
8.aa
16ff#
=127
4aa
4r
4cc
=128
4b
4r
8.ee
16cc
=129
4ee
4r
4a
=130
4g#
4r
8.bb
16gg#
=131
4bb
4r
4dd
=132
4cc
4r
8.ccc
16aa
=133
16gg
8.ff
4ff
4ff
=134
4dd#
4ee
8.ccc
16gg
=135
4ee
16ee
16gg
16ff#
16gg
16aa
16gg
16ff#
16ee
=136
4dd
8r
16G
16B
16A
16c
16B
16d
=137
4c
8r
16A
16c
16B
16d
16c
16e
=138
4d
8r
16B
16d
16c
16e
16d
16f
=139
16e
16f
16d
16e
16c
16e
16d
16f
16e
16g
16f#
16a
=140
16g
16a
16f#
16g
16e
16g
16f#
16a
16g
16b
16a
16cc
=141
16b
16cc
16a
16b
16g
16b
16a
16cc
16b
16dd
16cc#
16ee
=142
4dd
4d
4r
=143
8r
4dd
4cc
8b[
=144
8b]
4a
4g
8f#
=145
16a
8.g
16b
8.a
16cc
8.b
=146
8.dd
16cc
4a
4r
=147
8r
16ddd
16eee
8ccc
16ccc
16ddd
8bb
16bb
16ccc
=148
8aa
16aa
16bb
8gg
16gg
16aa
8ff#
16ff#
16aa
=149
16gg
16aa
16bb
16gg
16aa
16bb
16ccc
16aa
16bb
16ccc
16ddd
16bb
=150
16ddd
16ccc
16ddd
16ccc
4aa
4r
=151
8r
8g
8f#
8g
8cc
8b
=152
8r
8g
8f#
8g
8ee
8dd
=153
8r
8g
8f#
8g
8gg
8ff#
=154
8ff
8ee
8cc#
8dd
8b
8cc
=155
16cc
16a
16f#
16d
16c#
16d
16e
16d
16cc
16a
16f#
16d
=156
16dd
16b
16g
16d
16c#
16d
16e
16d
16dd
16b
16g
16d
=157
16e
16a
16cc
16ee
16ee
16dd
16cc
16b
16b
16a
16g
16f#
=158
8r
8g
8f#
8g
8gg
8ff#
=159
8ff
8ee
8cc#
8dd
8b
8cc
=160
16ccc
16aa
16ff#
16dd
16cc#
16dd
16ee
16dd
16ccc
16aa
16ff#
16dd
=161
16ddd
16bb
16gg
16dd
16cc#
16dd
16ee
16dd
16ddd
16bb
16gg
16dd
=162
16ee
16aa
16ccc
16eee
16eee
16ddd
16ccc
16bb
16bb
16aa
16gg
16ff#
=163
8gg
16gg
16bb
16aa
16ccc
16bb
16ddd
4ccc
=164
8bb
16g
16b
16a
16cc
16b
16dd
4cc
=165
4b
4a
4g
=166
8cc
4b
4a
8g
=167
8g#
8a
8r
8cc
8b
8a
=168
4bb
4aa
4gg
=169
4ff#
4ee
4dd
=170
16ee
16gg
16ee
16cc
16b
16dd
16g
16b
16a
16cc
16f#
16a
=171
4g
8r
8b
8cc
8cc
=172
4b
8r
8ff
8ee
8ff#
=173
4gg
4r
==
*-
